content/blogs/regnskap/hva-er-efaktura/efaktura-accounting.svg

<svg xmlns="http://www.w3.org/2000/svg" width="800" height="600"><defs><linearGradient id="a" x1="0%" x2="100%" y1="0%" y2="100%"><stop offset="0%" style="stop-color:#f8f9fa;stop-opacity:1"/><stop offset="100%" style="stop-color:#e9ecef;stop-opacity:1"/></linearGradient><linearGradient id="c" x1="0%" x2="100%" y1="0%" y2="100%"><stop offset="0%" style="stop-color:#6f42c1;stop-opacity:1"/><stop offset="100%" style="stop-color:#5a2d91;stop-opacity:1"/></linearGradient><linearGradient id="b" x1="0%" x2="100%" y1="0%" y2="100%"><stop offset="0%" style="stop-color:#fd7e14;stop-opacity:1"/><stop offset="100%" style="stop-color:#e55a00;stop-opacity:1"/></linearGradient></defs><path fill="url(#a)" stroke="#dee2e6" stroke-width="2" d="M0 0h800v600H0z"/><text x="400" y="40" fill="#212529" font-family="Arial, sans-serif" font-size="24" font-weight="bold" text-anchor="middle">
    eFaktura Regnskapsintegrasjon
  </text><rect width="120" height="80" x="50" y="80" fill="#007bff" stroke="#0056b3" stroke-width="2" rx="8"/><text x="110" y="105" fill="#fff" font-family="Arial, sans-serif" font-size="12" font-weight="bold" text-anchor="middle">
    eFaktura
  </text><text x="110" y="125" fill="#fff" font-family="Arial, sans-serif" font-size="10" text-anchor="middle">
    Strukturerte data
  </text><text x="110" y="140" fill="#fff" font-family="Arial, sans-serif" font-size="9" text-anchor="middle">
    XML/UBL format
  </text><text x="110" y="155" fill="#fff" font-family="Arial, sans-serif" font-size="9" text-anchor="middle">
    Automatisk validering
  </text><path fill="none" stroke="#007bff" stroke-width="3" d="M170 120h60l-10-10m10 10-10 10"/><text x="200" y="110" fill="#007bff" font-family="Arial, sans-serif" font-size="10" text-anchor="middle">API</text><rect width="140" height="80" x="250" y="80" fill="url(#b)" stroke="#e55a00" stroke-width="2" rx="8"/><text x="320" y="105" fill="#fff" font-family="Arial, sans-serif" font-size="14" font-weight="bold" text-anchor="middle">
    Databehandling
  </text><text x="320" y="125" fill="#fff" font-family="Arial, sans-serif" font-size="10" text-anchor="middle">
    Automatisk parsing
  </text><text x="320" y="140" fill="#fff" font-family="Arial, sans-serif" font-size="10" text-anchor="middle">
    Kontokoding
  </text><text x="320" y="155" fill="#fff" font-family="Arial, sans-serif" font-size="9" text-anchor="middle">
    MVA-behandling
  </text><path fill="none" stroke="#fd7e14" stroke-width="3" d="M390 120h60l-10-10m10 10-10 10"/><rect width="140" height="80" x="470" y="80" fill="url(#c)" stroke="#5a2d91" stroke-width="2" rx="8"/><text x="540" y="105" fill="#fff" font-family="Arial, sans-serif" font-size="14" font-weight="bold" text-anchor="middle">
    ERP/Regnskap
  </text><text x="540" y="125" fill="#fff" font-family="Arial, sans-serif" font-size="10" text-anchor="middle">
    Automatisk bokføring
  </text><text x="540" y="140" fill="#fff" font-family="Arial, sans-serif" font-size="10" text-anchor="middle">
    Bilagsarkivering
  </text><text x="540" y="155" fill="#fff" font-family="Arial, sans-serif" font-size="9" text-anchor="middle">
    Rapportgenerering
  </text><text x="400" y="220" fill="#212529" font-family="Arial, sans-serif" font-size="18" font-weight="bold" text-anchor="middle">
    Automatiserte Prosesser
  </text><rect width="140" height="80" x="80" y="240" fill="#d4edda" stroke="#28a745" stroke-width="2" rx="5"/><text x="150" y="265" fill="#155724" font-family="Arial, sans-serif" font-size="12" font-weight="bold" text-anchor="middle">
    Kontokoding
  </text><text x="150" y="285" fill="#155724" font-family="Arial, sans-serif" font-size="10" text-anchor="middle">
    AI-basert kategorisering
  </text><text x="150" y="300" fill="#155724" font-family="Arial, sans-serif" font-size="10" text-anchor="middle">
    Leverandørhistorikk
  </text><text x="150" y="315" fill="#155724" font-family="Arial, sans-serif" font-size="9" text-anchor="middle">
    Automatisk forslag
  </text><rect width="140" height="80" x="240" y="240" fill="#cce5ff" stroke="#007bff" stroke-width="2" rx="5"/><text x="310" y="265" fill="#004085" font-family="Arial, sans-serif" font-size="12" font-weight="bold" text-anchor="middle">
    MVA-behandling
  </text><text x="310" y="285" fill="#004085" font-family="Arial, sans-serif" font-size="10" text-anchor="middle">
    Automatisk beregning
  </text><text x="310" y="300" fill="#004085" font-family="Arial, sans-serif" font-size="10" text-anchor="middle">
    Korrekt sats
  </text><text x="310" y="315" fill="#004085" font-family="Arial, sans-serif" font-size="9" text-anchor="middle">
    Validering mot regler
  </text><rect width="140" height="80" x="400" y="240" fill="#fff3cd" stroke="#ffc107" stroke-width="2" rx="5"/><text x="470" y="265" fill="#856404" font-family="Arial, sans-serif" font-size="12" font-weight="bold" text-anchor="middle">
    Dimensjonsfordeling
  </text><text x="470" y="285" fill="#856404" font-family="Arial, sans-serif" font-size="10" text-anchor="middle">
    Avdeling/prosjekt
  </text><text x="470" y="300" fill="#856404" font-family="Arial, sans-serif" font-size="10" text-anchor="middle">
    Kostnadssenter
  </text><text x="470" y="315" fill="#856404" font-family="Arial, sans-serif" font-size="9" text-anchor="middle">
    Automatisk fordeling
  </text><rect width="140" height="80" x="560" y="240" fill="#f8d7da" stroke="#dc3545" stroke-width="2" rx="5"/><text x="630" y="265" fill="#721c24" font-family="Arial, sans-serif" font-size="12" font-weight="bold" text-anchor="middle">
    Attestering
  </text><text x="630" y="285" fill="#721c24" font-family="Arial, sans-serif" font-size="10" text-anchor="middle">
    Workflow-basert
  </text><text x="630" y="300" fill="#721c24" font-family="Arial, sans-serif" font-size="10" text-anchor="middle">
    Godkjenning
  </text><text x="630" y="315" fill="#721c24" font-family="Arial, sans-serif" font-size="9" text-anchor="middle">
    Digital signatur
  </text><text x="400" y="370" fill="#212529" font-family="Arial, sans-serif" font-size="18" font-weight="bold" text-anchor="middle">
    Dataflyt og Integrasjon
  </text><rect width="100" height="50" x="50" y="390" fill="#e9ecef" stroke="#6c757d" stroke-width="2" rx="5"/><text x="100" y="410" fill="#495057" font-family="Arial, sans-serif" font-size="10" font-weight="bold" text-anchor="middle">
    1. Mottak
  </text><text x="100" y="425" fill="#495057" font-family="Arial, sans-serif" font-size="9" text-anchor="middle">
    PEPPOL → ERP
  </text><path fill="none" stroke="#6c757d" stroke-width="2" d="M150 415h40l-10-10m10 10-10 10"/><rect width="100" height="50" x="200" y="390" fill="#e9ecef" stroke="#6c757d" stroke-width="2" rx="5"/><text x="250" y="410" fill="#495057" font-family="Arial, sans-serif" font-size="10" font-weight="bold" text-anchor="middle">
    2. Validering
  </text><text x="250" y="425" fill="#495057" font-family="Arial, sans-serif" font-size="9" text-anchor="middle">
    Format + Innhold
  </text><path fill="none" stroke="#6c757d" stroke-width="2" d="M300 415h40l-10-10m10 10-10 10"/><rect width="100" height="50" x="350" y="390" fill="#e9ecef" stroke="#6c757d" stroke-width="2" rx="5"/><text x="400" y="410" fill="#495057" font-family="Arial, sans-serif" font-size="10" font-weight="bold" text-anchor="middle">
    3. Behandling
  </text><text x="400" y="425" fill="#495057" font-family="Arial, sans-serif" font-size="9" text-anchor="middle">
    Auto-koding
  </text><path fill="none" stroke="#6c757d" stroke-width="2" d="M450 415h40l-10-10m10 10-10 10"/><rect width="100" height="50" x="500" y="390" fill="#e9ecef" stroke="#6c757d" stroke-width="2" rx="5"/><text x="550" y="410" fill="#495057" font-family="Arial, sans-serif" font-size="10" font-weight="bold" text-anchor="middle">
    4. Bokføring
  </text><text x="550" y="425" fill="#495057" font-family="Arial, sans-serif" font-size="9" text-anchor="middle">
    Automatisk post
  </text><path fill="none" stroke="#6c757d" stroke-width="2" d="M600 415h40l-10-10m10 10-10 10"/><rect width="100" height="50" x="650" y="390" fill="#e9ecef" stroke="#6c757d" stroke-width="2" rx="5"/><text x="700" y="410" fill="#495057" font-family="Arial, sans-serif" font-size="10" font-weight="bold" text-anchor="middle">
    5. Arkivering
  </text><text x="700" y="425" fill="#495057" font-family="Arial, sans-serif" font-size="9" text-anchor="middle">
    Digital lagring
  </text><text x="400" y="490" fill="#212529" font-family="Arial, sans-serif" font-size="18" font-weight="bold" text-anchor="middle">
    Fordeler for Regnskapsføring
  </text><rect width="150" height="60" x="100" y="510" fill="#d1ecf1" stroke="#17a2b8" stroke-width="2" rx="5"/><text x="175" y="530" fill="#0c5460" font-family="Arial, sans-serif" font-size="12" font-weight="bold" text-anchor="middle">
    90% Tidsbesparelse
  </text><text x="175" y="550" fill="#0c5460" font-family="Arial, sans-serif" font-size="10" text-anchor="middle">
    Automatisk behandling
  </text><text x="175" y="565" fill="#0c5460" font-family="Arial, sans-serif" font-size="10" text-anchor="middle">
    reduserer manuelt arbeid
  </text><rect width="150" height="60" x="270" y="510" fill="#d4edda" stroke="#28a745" stroke-width="2" rx="5"/><text x="345" y="530" fill="#155724" font-family="Arial, sans-serif" font-size="12" font-weight="bold" text-anchor="middle">
    Færre Feil
  </text><text x="345" y="550" fill="#155724" font-family="Arial, sans-serif" font-size="10" text-anchor="middle">
    Strukturerte data
  </text><text x="345" y="565" fill="#155724" font-family="Arial, sans-serif" font-size="10" text-anchor="middle">
    eliminerer tastefeil
  </text><rect width="150" height="60" x="440" y="510" fill="#fff3cd" stroke="#ffc107" stroke-width="2" rx="5"/><text x="515" y="530" fill="#856404" font-family="Arial, sans-serif" font-size="12" font-weight="bold" text-anchor="middle">
    Sanntidsrapporter
  </text><text x="515" y="550" fill="#856404" font-family="Arial, sans-serif" font-size="10" text-anchor="middle">
    Øyeblikkelig oppdatering
  </text><text x="515" y="565" fill="#856404" font-family="Arial, sans-serif" font-size="10" text-anchor="middle">
    av regnskapsdata
  </text><text x="400" y="590" fill="#6c757d" font-family="Arial, sans-serif" font-size="12" text-anchor="middle">
    Fullt kompatibel med norske bokføringsregler og revisjonsstandard
  </text></svg>

<svg width="800" height="600" xmlns="http://www.w3.org/2000/svg">
  <defs>
    <linearGradient id="bgGradient" x1="0%" y1="0%" x2="100%" y2="100%">
      <stop offset="0%" style="stop-color:#f8f9fa;stop-opacity:1" />
      <stop offset="100%" style="stop-color:#e9ecef;stop-opacity:1" />
    </linearGradient>
    <linearGradient id="erpGradient" x1="0%" y1="0%" x2="100%" y2="100%">
      <stop offset="0%" style="stop-color:#6f42c1;stop-opacity:1" />
      <stop offset="100%" style="stop-color:#5a2d91;stop-opacity:1" />
    </linearGradient>
    <linearGradient id="dataGradient" x1="0%" y1="0%" x2="100%" y2="100%">
      <stop offset="0%" style="stop-color:#fd7e14;stop-opacity:1" />
      <stop offset="100%" style="stop-color:#e55a00;stop-opacity:1" />
    </linearGradient>
  </defs>
  

  <rect width="800" height="600" fill="url(#bgGradient)" stroke="#dee2e6" stroke-width="2"/>
  

  <text x="400" y="40" text-anchor="middle" font-family="Arial, sans-serif" font-size="24" font-weight="bold" fill="#212529">
    eFaktura Regnskapsintegrasjon
  </text>
  

  <rect x="50" y="80" width="120" height="80" fill="#007bff" stroke="#0056b3" stroke-width="2" rx="8"/>
  <text x="110" y="105" text-anchor="middle" font-family="Arial, sans-serif" font-size="12" font-weight="bold" fill="white">
    eFaktura
  </text>
  <text x="110" y="125" text-anchor="middle" font-family="Arial, sans-serif" font-size="10" fill="white">
    Strukturerte data
  </text>
  <text x="110" y="140" text-anchor="middle" font-family="Arial, sans-serif" font-size="9" fill="white">
    XML/UBL format
  </text>
  <text x="110" y="155" text-anchor="middle" font-family="Arial, sans-serif" font-size="9" fill="white">
    Automatisk validering
  </text>
  

  <path d="M 170 120 L 230 120 L 220 110 M 230 120 L 220 130" stroke="#007bff" stroke-width="3" fill="none"/>
  <text x="200" y="110" text-anchor="middle" font-family="Arial, sans-serif" font-size="10" fill="#007bff">API</text>
  

  <rect x="250" y="80" width="140" height="80" fill="url(#dataGradient)" stroke="#e55a00" stroke-width="2" rx="8"/>
  <text x="320" y="105" text-anchor="middle" font-family="Arial, sans-serif" font-size="14" font-weight="bold" fill="white">
    Databehandling
  </text>
  <text x="320" y="125" text-anchor="middle" font-family="Arial, sans-serif" font-size="10" fill="white">
    Automatisk parsing
  </text>
  <text x="320" y="140" text-anchor="middle" font-family="Arial, sans-serif" font-size="10" fill="white">
    Kontokoding
  </text>
  <text x="320" y="155" text-anchor="middle" font-family="Arial, sans-serif" font-size="9" fill="white">
    MVA-behandling
  </text>
  

  <path d="M 390 120 L 450 120 L 440 110 M 450 120 L 440 130" stroke="#fd7e14" stroke-width="3" fill="none"/>
  

  <rect x="470" y="80" width="140" height="80" fill="url(#erpGradient)" stroke="#5a2d91" stroke-width="2" rx="8"/>
  <text x="540" y="105" text-anchor="middle" font-family="Arial, sans-serif" font-size="14" font-weight="bold" fill="white">
    ERP/Regnskap
  </text>
  <text x="540" y="125" text-anchor="middle" font-family="Arial, sans-serif" font-size="10" fill="white">
    Automatisk bokføring
  </text>
  <text x="540" y="140" text-anchor="middle" font-family="Arial, sans-serif" font-size="10" fill="white">
    Bilagsarkivering
  </text>
  <text x="540" y="155" text-anchor="middle" font-family="Arial, sans-serif" font-size="9" fill="white">
    Rapportgenerering
  </text>
  

  <text x="400" y="220" text-anchor="middle" font-family="Arial, sans-serif" font-size="18" font-weight="bold" fill="#212529">
    Automatiserte Prosesser
  </text>
  

  <rect x="80" y="240" width="140" height="80" fill="#d4edda" stroke="#28a745" stroke-width="2" rx="5"/>
  <text x="150" y="265" text-anchor="middle" font-family="Arial, sans-serif" font-size="12" font-weight="bold" fill="#155724">
    Kontokoding
  </text>
  <text x="150" y="285" text-anchor="middle" font-family="Arial, sans-serif" font-size="10" fill="#155724">
    AI-basert kategorisering
  </text>
  <text x="150" y="300" text-anchor="middle" font-family="Arial, sans-serif" font-size="10" fill="#155724">
    Leverandørhistorikk
  </text>
  <text x="150" y="315" text-anchor="middle" font-family="Arial, sans-serif" font-size="9" fill="#155724">
    Automatisk forslag
  </text>
  
  <rect x="240" y="240" width="140" height="80" fill="#cce5ff" stroke="#007bff" stroke-width="2" rx="5"/>
  <text x="310" y="265" text-anchor="middle" font-family="Arial, sans-serif" font-size="12" font-weight="bold" fill="#004085">
    MVA-behandling
  </text>
  <text x="310" y="285" text-anchor="middle" font-family="Arial, sans-serif" font-size="10" fill="#004085">
    Automatisk beregning
  </text>
  <text x="310" y="300" text-anchor="middle" font-family="Arial, sans-serif" font-size="10" fill="#004085">
    Korrekt sats
  </text>
  <text x="310" y="315" text-anchor="middle" font-family="Arial, sans-serif" font-size="9" fill="#004085">
    Validering mot regler
  </text>
  
  <rect x="400" y="240" width="140" height="80" fill="#fff3cd" stroke="#ffc107" stroke-width="2" rx="5"/>
  <text x="470" y="265" text-anchor="middle" font-family="Arial, sans-serif" font-size="12" font-weight="bold" fill="#856404">
    Dimensjonsfordeling
  </text>
  <text x="470" y="285" text-anchor="middle" font-family="Arial, sans-serif" font-size="10" fill="#856404">
    Avdeling/prosjekt
  </text>
  <text x="470" y="300" text-anchor="middle" font-family="Arial, sans-serif" font-size="10" fill="#856404">
    Kostnadssenter
  </text>
  <text x="470" y="315" text-anchor="middle" font-family="Arial, sans-serif" font-size="9" fill="#856404">
    Automatisk fordeling
  </text>
  
  <rect x="560" y="240" width="140" height="80" fill="#f8d7da" stroke="#dc3545" stroke-width="2" rx="5"/>
  <text x="630" y="265" text-anchor="middle" font-family="Arial, sans-serif" font-size="12" font-weight="bold" fill="#721c24">
    Attestering
  </text>
  <text x="630" y="285" text-anchor="middle" font-family="Arial, sans-serif" font-size="10" fill="#721c24">
    Workflow-basert
  </text>
  <text x="630" y="300" text-anchor="middle" font-family="Arial, sans-serif" font-size="10" fill="#721c24">
    Godkjenning
  </text>
  <text x="630" y="315" text-anchor="middle" font-family="Arial, sans-serif" font-size="9" fill="#721c24">
    Digital signatur
  </text>
  

  <text x="400" y="370" text-anchor="middle" font-family="Arial, sans-serif" font-size="18" font-weight="bold" fill="#212529">
    Dataflyt og Integrasjon
  </text>
  

  <rect x="50" y="390" width="100" height="50" fill="#e9ecef" stroke="#6c757d" stroke-width="2" rx="5"/>
  <text x="100" y="410" text-anchor="middle" font-family="Arial, sans-serif" font-size="10" font-weight="bold" fill="#495057">
    1. Mottak
  </text>
  <text x="100" y="425" text-anchor="middle" font-family="Arial, sans-serif" font-size="9" fill="#495057">
    PEPPOL → ERP
  </text>
  
  <path d="M 150 415 L 190 415 L 180 405 M 190 415 L 180 425" stroke="#6c757d" stroke-width="2" fill="none"/>
  
  <rect x="200" y="390" width="100" height="50" fill="#e9ecef" stroke="#6c757d" stroke-width="2" rx="5"/>
  <text x="250" y="410" text-anchor="middle" font-family="Arial, sans-serif" font-size="10" font-weight="bold" fill="#495057">
    2. Validering
  </text>
  <text x="250" y="425" text-anchor="middle" font-family="Arial, sans-serif" font-size="9" fill="#495057">
    Format + Innhold
  </text>
  
  <path d="M 300 415 L 340 415 L 330 405 M 340 415 L 330 425" stroke="#6c757d" stroke-width="2" fill="none"/>
  
  <rect x="350" y="390" width="100" height="50" fill="#e9ecef" stroke="#6c757d" stroke-width="2" rx="5"/>
  <text x="400" y="410" text-anchor="middle" font-family="Arial, sans-serif" font-size="10" font-weight="bold" fill="#495057">
    3. Behandling
  </text>
  <text x="400" y="425" text-anchor="middle" font-family="Arial, sans-serif" font-size="9" fill="#495057">
    Auto-koding
  </text>
  
  <path d="M 450 415 L 490 415 L 480 405 M 490 415 L 480 425" stroke="#6c757d" stroke-width="2" fill="none"/>
  
  <rect x="500" y="390" width="100" height="50" fill="#e9ecef" stroke="#6c757d" stroke-width="2" rx="5"/>
  <text x="550" y="410" text-anchor="middle" font-family="Arial, sans-serif" font-size="10" font-weight="bold" fill="#495057">
    4. Bokføring
  </text>
  <text x="550" y="425" text-anchor="middle" font-family="Arial, sans-serif" font-size="9" fill="#495057">
    Automatisk post
  </text>
  
  <path d="M 600 415 L 640 415 L 630 405 M 640 415 L 630 425" stroke="#6c757d" stroke-width="2" fill="none"/>
  
  <rect x="650" y="390" width="100" height="50" fill="#e9ecef" stroke="#6c757d" stroke-width="2" rx="5"/>
  <text x="700" y="410" text-anchor="middle" font-family="Arial, sans-serif" font-size="10" font-weight="bold" fill="#495057">
    5. Arkivering
  </text>
  <text x="700" y="425" text-anchor="middle" font-family="Arial, sans-serif" font-size="9" fill="#495057">
    Digital lagring
  </text>
  

  <text x="400" y="490" text-anchor="middle" font-family="Arial, sans-serif" font-size="18" font-weight="bold" fill="#212529">
    Fordeler for Regnskapsføring
  </text>
  

  <rect x="100" y="510" width="150" height="60" fill="#d1ecf1" stroke="#17a2b8" stroke-width="2" rx="5"/>
  <text x="175" y="530" text-anchor="middle" font-family="Arial, sans-serif" font-size="12" font-weight="bold" fill="#0c5460">
    90% Tidsbesparelse
  </text>
  <text x="175" y="550" text-anchor="middle" font-family="Arial, sans-serif" font-size="10" fill="#0c5460">
    Automatisk behandling
  </text>
  <text x="175" y="565" text-anchor="middle" font-family="Arial, sans-serif" font-size="10" fill="#0c5460">
    reduserer manuelt arbeid
  </text>
  
  <rect x="270" y="510" width="150" height="60" fill="#d4edda" stroke="#28a745" stroke-width="2" rx="5"/>
  <text x="345" y="530" text-anchor="middle" font-family="Arial, sans-serif" font-size="12" font-weight="bold" fill="#155724">
    Færre Feil
  </text>
  <text x="345" y="550" text-anchor="middle" font-family="Arial, sans-serif" font-size="10" fill="#155724">
    Strukturerte data
  </text>
  <text x="345" y="565" text-anchor="middle" font-family="Arial, sans-serif" font-size="10" fill="#155724">
    eliminerer tastefeil
  </text>
  
  <rect x="440" y="510" width="150" height="60" fill="#fff3cd" stroke="#ffc107" stroke-width="2" rx="5"/>
  <text x="515" y="530" text-anchor="middle" font-family="Arial, sans-serif" font-size="12" font-weight="bold" fill="#856404">
    Sanntidsrapporter
  </text>
  <text x="515" y="550" text-anchor="middle" font-family="Arial, sans-serif" font-size="10" fill="#856404">
    Øyeblikkelig oppdatering
  </text>
  <text x="515" y="565" text-anchor="middle" font-family="Arial, sans-serif" font-size="10" fill="#856404">
    av regnskapsdata
  </text>
  

  <text x="400" y="590" text-anchor="middle" font-family="Arial, sans-serif" font-size="12" fill="#6c757d">
    Fullt kompatibel med norske bokføringsregler og revisjonsstandard
  </text>
</svg>
